X:0737
T:Miss Willy Alexander.
M:C|
L:1/8
Q:1/4=124
I: :: ||
Z:Jack Campin * www.campin.me.uk * 2009
K:G
G   |D>GGA  B>A BA/G/|d>ed>B A>GA>B|DGGA  B>A BA/G/|d>edB A/G/A/B/ G   :|
B/c/|d>eTdB gdBG     |d>edB TAGAB  |dedB  gdBG     |A>GAB G>G      GB/c/|
     d>edB  gdBG     |d>edB  A>GAB |d>edB gfed     |cBAB  G>GG         |]

